archdroid-icon-theme/Archdroid-Cyan/apps/scalable/accessories-calculator.svg

<?xml version="1.0" encoding="UTF-8" standalone="no"?>
<!-- Created with Inkscape (http://www.inkscape.org/) -->

<svg
   xmlns:dc="http://purl.org/dc/elements/1.1/"
   xmlns:cc="http://creativecommons.org/ns#"
   xmlns:rdf="http://www.w3.org/1999/02/22-rdf-syntax-ns#"
   xmlns:svg="http://www.w3.org/2000/svg"
   xmlns="http://www.w3.org/2000/svg"
   xmlns:sodipodi="http://sodipodi.sourceforge.net/DTD/sodipodi-0.dtd"
   xmlns:inkscape="http://www.inkscape.org/namespaces/inkscape"
   id="svg7384"
   sodipodi:docname="accessories-calculator.svg"
   version="1.1"
   inkscape:version="0.91 r13725"
   height="48"
   width="48">
  <metadata
     id="metadata90">
    <rdf:RDF>
      <cc:Work
         rdf:about="">
        <dc:format>image/svg+xml</dc:format>
        <dc:type
           rdf:resource="http://purl.org/dc/dcmitype/StillImage" />
        <dc:title>Gnome Symbolic Icon Theme</dc:title>
      </cc:Work>
    </rdf:RDF>
  </metadata>
  <sodipodi:namedview
     inkscape:cy="22.52827682583254"
     pagecolor="#ffffff"
     borderopacity="1"
     showborder="true"
     inkscape:bbox-paths="false"
     guidetolerance="10"
     inkscape:window-width="1366"
     showguides="true"
     inkscape:object-nodes="true"
     inkscape:snap-bbox="true"
     inkscape:pageshadow="2"
     inkscape:guide-bbox="true"
     inkscape:snap-nodes="true"
     bordercolor="#666666"
     objecttolerance="10"
     id="namedview88"
     showgrid="false"
     inkscape:window-maximized="1"
     inkscape:window-x="0"
     inkscape:snap-global="true"
     inkscape:window-y="30"
     gridtolerance="10"
     inkscape:window-height="713"
     inkscape:snap-to-guides="true"
     inkscape:current-layer="layer11"
     inkscape:zoom="4.351235969652693"
     inkscape:cx="-20.77391676788765"
     inkscape:snap-grids="true"
     inkscape:pageopacity="1"
     fit-margin-top="0"
     fit-margin-left="0"
     fit-margin-right="0"
     fit-margin-bottom="0"
     inkscape:bbox-nodes="true"
     inkscape:snap-page="true">
    <inkscape:grid
       spacingx="1px"
       spacingy="1px"
       id="grid4866"
       empspacing="2"
       enabled="true"
       type="xygrid"
       snapvisiblegridlinesonly="true"
       visible="true"
       originx="-1.357421875"
       originy="0" />
  </sodipodi:namedview>
  <title
     id="title9167">Gnome Symbolic Icon Theme</title>
  <defs
     id="defs7386" />
  <g
     inkscape:label="status"
     transform="translate(-63.357421875,-349)"
     inkscape:groupmode="layer"
     id="layer9"
     style="display:inline" />
  <g
     inkscape:label="devices"
     transform="translate(-63.357421875,-349)"
     inkscape:groupmode="layer"
     id="layer10" />
  <g
     inkscape:label="apps"
     transform="translate(-63.357421875,-349)"
     inkscape:groupmode="layer"
     id="layer11">
    <path
       style="opacity:1;fill:#00BCD4;fill-opacity:1;fill-rule:nonzero;stroke:none;stroke-width:3;stroke-miterlimit:4;stroke-dasharray:none;stroke-opacity:1"
       d="M 13.25 6 C 11.03400000000001 6 9.25 7.783999999999992 9.25 10 L 9.25 38 C 9.25 40.21600000000001 11.03400000000001 42 13.25 42 L 35.25 42 C 37.46599999999999 42 39.25 40.21600000000001 39.25 38 L 39.25 10 C 39.25 7.783999999999992 37.46599999999999 6 35.25 6 L 13.25 6 z M 13.25 10 L 35.25 10 L 35.25 18 L 13.25 18 L 13.25 10 z M 14.25 22 L 16.25 22 C 16.804 22 17.25 22.44600000000003 17.25 23 L 17.25 25 C 17.25 25.55399999999997 16.804 26 16.25 26 L 14.25 26 C 13.696 26 13.25 25.55399999999997 13.25 25 L 13.25 23 C 13.25 22.44600000000003 13.696 22 14.25 22 z M 20.25 22 L 22.25 22 C 22.804 22 23.25 22.44600000000003 23.25 23 L 23.25 25 C 23.25 25.55399999999997 22.804 26 22.25 26 L 20.25 26 C 19.696 26 19.25 25.55399999999997 19.25 25 L 19.25 23 C 19.25 22.44600000000003 19.696 22 20.25 22 z M 26.25 22 L 28.25 22 C 28.804 22 29.25 22.44600000000003 29.25 23 L 29.25 25 C 29.25 25.55399999999997 28.804 26 28.25 26 L 26.25 26 C 25.696 26 25.25 25.55399999999997 25.25 25 L 25.25 23 C 25.25 22.44600000000003 25.696 22 26.25 22 z M 32.25 22 L 34.25 22 C 34.804 22 35.25 22.44600000000003 35.25 23 L 35.25 25 C 35.25 25.55399999999997 34.804 26 34.25 26 L 32.25 26 C 31.696 26 31.25 25.55399999999997 31.25 25 L 31.25 23 C 31.25 22.44600000000003 31.696 22 32.25 22 z M 14.25 28 L 16.25 28 C 16.804 28 17.25 28.44600000000003 17.25 29 L 17.25 31 C 17.25 31.55399999999997 16.804 32 16.25 32 L 14.25 32 C 13.696 32 13.25 31.55399999999997 13.25 31 L 13.25 29 C 13.25 28.44600000000003 13.696 28 14.25 28 z M 20.25 28 L 22.25 28 C 22.804 28 23.25 28.44600000000003 23.25 29 L 23.25 31 C 23.25 31.55399999999997 22.804 32 22.25 32 L 20.25 32 C 19.696 32 19.25 31.55399999999997 19.25 31 L 19.25 29 C 19.25 28.44600000000003 19.696 28 20.25 28 z M 26.25 28 L 28.25 28 C 28.804 28 29.25 28.44600000000003 29.25 29 L 29.25 31 C 29.25 31.55399999999997 28.804 32 28.25 32 L 26.25 32 C 25.696 32 25.25 31.55399999999997 25.25 31 L 25.25 29 C 25.25 28.44600000000003 25.696 28 26.25 28 z M 32.25 28 L 34.25 28 C 34.804 28 35.25 28.44600000000003 35.25 29 L 35.25 31 C 35.25 31.55399999999997 34.804 32 34.25 32 L 32.25 32 C 31.696 32 31.25 31.55399999999997 31.25 31 L 31.25 29 C 31.25 28.44600000000003 31.696 28 32.25 28 z M 14.25 34 L 16.25 34 C 16.804 34 17.25 34.44600000000003 17.25 35 L 17.25 37 C 17.25 37.55399999999997 16.804 38 16.25 38 L 14.25 38 C 13.696 38 13.25 37.55399999999997 13.25 37 L 13.25 35 C 13.25 34.44600000000003 13.696 34 14.25 34 z M 20.25 34 L 22.25 34 C 22.804 34 23.25 34.44600000000003 23.25 35 L 23.25 37 C 23.25 37.55399999999997 22.804 38 22.25 38 L 20.25 38 C 19.696 38 19.25 37.55399999999997 19.25 37 L 19.25 35 C 19.25 34.44600000000003 19.696 34 20.25 34 z M 26.25 34 L 28.25 34 C 28.804 34 29.25 34.44600000000003 29.25 35 L 29.25 37 C 29.25 37.55399999999997 28.804 38 28.25 38 L 26.25 38 C 25.696 38 25.25 37.55399999999997 25.25 37 L 25.25 35 C 25.25 34.44600000000003 25.696 34 26.25 34 z M 32.25 34 L 34.25 34 C 34.804 34 35.25 34.44600000000003 35.25 35 L 35.25 37 C 35.25 37.55399999999997 34.804 38 34.25 38 L 32.25 38 C 31.696 38 31.25 37.55399999999997 31.25 37 L 31.25 35 C 31.25 34.44600000000003 31.696 34 32.25 34 z "
       transform="translate(63.357421875,349)"
       id="rect4184" />
  </g>
  <g
     inkscape:label="actions"
     transform="translate(-63.357421875,-349)"
     inkscape:groupmode="layer"
     id="layer12" />
  <g
     inkscape:label="places"
     transform="translate(-63.357421875,-349)"
     inkscape:groupmode="layer"
     id="layer13" />
  <g
     inkscape:label="mimetypes"
     transform="translate(-63.357421875,-349)"
     inkscape:groupmode="layer"
     id="layer14" />
  <g
     inkscape:label="emblems"
     transform="translate(-63.357421875,-349)"
     inkscape:groupmode="layer"
     id="layer15" />
</svg>

<svg xmlns="http://www.w3.org/2000/svg" viewBox="0 0 48 48"><path d="m13.25 6c-2.216 0-4 1.784-4 4v28c0 2.216 1.784 4 4 4h22c2.216 0 4-1.784 4-4v-28c0-2.216-1.784-4-4-4h-22m0 4h22v8h-22v-8m1 12h2c.554 0 1 .446 1 1v2c0 .554-.446 1-1 1h-2c-.554 0-1-.446-1-1v-2c0-.554.446-1 1-1m6 0h2c.554 0 1 .446 1 1v2c0 .554-.446 1-1 1h-2c-.554 0-1-.446-1-1v-2c0-.554.446-1 1-1m6 0h2c.554 0 1 .446 1 1v2c0 .554-.446 1-1 1h-2c-.554 0-1-.446-1-1v-2c0-.554.446-1 1-1m6 0h2c.554 0 1 .446 1 1v2c0 .554-.446 1-1 1h-2c-.554 0-1-.446-1-1v-2c0-.554.446-1 1-1m-18 6h2c.554 0 1 .446 1 1v2c0 .554-.446 1-1 1h-2c-.554 0-1-.446-1-1v-2c0-.554.446-1 1-1m6 0h2c.554 0 1 .446 1 1v2c0 .554-.446 1-1 1h-2c-.554 0-1-.446-1-1v-2c0-.554.446-1 1-1m6 0h2c.554 0 1 .446 1 1v2c0 .554-.446 1-1 1h-2c-.554 0-1-.446-1-1v-2c0-.554.446-1 1-1m6 0h2c.554 0 1 .446 1 1v2c0 .554-.446 1-1 1h-2c-.554 0-1-.446-1-1v-2c0-.554.446-1 1-1m-18 6h2c.554 0 1 .446 1 1v2c0 .554-.446 1-1 1h-2c-.554 0-1-.446-1-1v-2c0-.554.446-1 1-1m6 0h2c.554 0 1 .446 1 1v2c0 .554-.446 1-1 1h-2c-.554 0-1-.446-1-1v-2c0-.554.446-1 1-1m6 0h2c.554 0 1 .446 1 1v2c0 .554-.446 1-1 1h-2c-.554 0-1-.446-1-1v-2c0-.554.446-1 1-1m6 0h2c.554 0 1 .446 1 1v2c0 .554-.446 1-1 1h-2c-.554 0-1-.446-1-1v-2c0-.554.446-1 1-1" fill="#00BCD4"/></svg>
